images/partner-singular-dtv.svg

<svg width="176" height="121" viewBox="0 0 176 121" fill="none" xmlns="http://www.w3.org/2000/svg">
<path d="M94.2153 11.2641L87.504 0L80.7926 11.2641C48.9842 14.2075 24 37.2453 24 37.2453C24 37.2453 49.8302 61.0189 82.3717 63.3396L87.504 72.7358L92.6362 63.3396C125.121 60.9623 151.008 37.2453 151.008 37.2453C151.008 37.2453 125.967 14.2641 94.2153 11.2641ZM105.156 29.3207L89.8727 57.7358C89.0831 57.7924 88.2935 57.7924 87.504 57.7924C86.7144 57.7924 85.9248 57.7924 85.1352 57.7358L69.8514 29.3207L66.6368 34.7547L78.9315 57.1698C53.6089 53.8302 29.9782 37.2453 29.9782 37.2453C29.9782 37.2453 52.4809 21.4528 77.0704 17.5472L73.1789 24.0566L76.3372 29.6604L84.2893 16.7547C85.3608 16.6981 86.4324 16.6415 87.504 16.6415C88.5755 16.6415 89.6471 16.6981 90.7186 16.7547L98.6707 29.6604L101.829 24.0566L97.9376 17.5472C122.583 21.4528 145.368 37.2453 145.368 37.2453C145.368 37.2453 121.399 53.8302 96.02 57.1698L108.315 34.7547L105.156 29.3207Z" fill="#251F31"/>
<path d="M13.3099 88.1693C11.7307 87.3769 10.1516 86.8108 8.06489 86.8108C5.1322 86.8108 3.44027 88.5656 3.44027 90.7165C3.44027 93.2637 6.03457 94.9618 8.57247 96.3203C13.2535 98.8108 15.3402 101.584 15.2274 104.981C15.1146 109.452 11.7307 111.66 7.44451 111.603C3.66586 111.547 1.40995 110.415 0 109.226L1.12796 106.962C2.5943 107.981 4.62462 109.113 7.27532 109.113C10.6028 109.113 12.4075 106.962 12.4075 105.094C12.4075 102.207 10.2644 100.679 6.88053 98.641C3.04548 96.3769 0.563978 94.3958 0.563978 90.7165C0.563978 87.7731 2.81989 84.2637 7.89569 84.2637C10.3772 84.2637 12.8587 85.1127 14.2123 85.9618L13.3099 88.1693Z" fill="#251F31"/>
<path d="M20.4734 87.8301C21.6578 87.8301 22.6166 88.7923 22.6166 89.981C22.6166 91.1697 21.6578 92.0754 20.4734 92.0754C19.3455 92.0754 18.3867 91.1697 18.3867 89.981C18.3867 88.7923 19.3455 87.8301 20.4734 87.8301ZM19.1763 96.0942H21.7706V111.094H19.1763V96.0942Z" fill="#251F31"/>
<path d="M28.6492 98.2444C29.7208 96.7161 31.6947 95.584 33.8942 95.584C37.6729 95.584 40.3236 98.2444 40.3236 102.15V111.037H37.6729V102.32C37.6729 99.2066 35.417 97.7349 33.2738 97.7349C31.4127 97.7349 28.7056 99.15 28.7056 102.32V111.037H26.1113V96.0368H27.5777L28.6492 98.2444Z" fill="#251F31"/>
<path d="M41.5664 115.623C41.5664 112.849 43.5967 111.377 45.7398 110.925C44.7811 110.755 43.8223 109.623 43.8787 108.321C43.8787 107.019 44.9503 105.717 46.4166 105.717C44.4991 104.642 43.5967 102.774 43.5967 101.076C43.5967 98.5284 45.4579 95.6416 49.5749 95.6416C51.154 95.6416 52.9588 96.2642 53.8611 97.1133L57.3014 96.151H57.7526V98.6416H54.8199C55.3275 99.2642 55.4967 100.227 55.4967 100.962C55.4967 103.849 53.3535 106.34 49.4621 106.396C47.3754 106.396 46.5294 107.132 46.5294 108.208C46.5294 109.566 47.7702 110.019 49.8005 110.019C54.8763 110.189 58.3166 111.774 58.3166 115.623C58.3166 119.415 54.0867 121 49.8005 121C45.627 121 41.5664 119.415 41.5664 115.623ZM55.6659 115.566C55.6659 113.245 52.6204 112.113 49.5749 112.113C46.5294 112.113 44.2171 113.245 44.2171 115.566C44.2171 118 47.2062 118.906 49.9133 118.906C52.6768 118.906 55.6659 118 55.6659 115.566ZM53.0716 101.019C53.0716 99.4341 51.8872 97.6227 49.5749 97.6227C47.2062 97.6227 46.0782 99.4341 46.0782 101.019C46.0782 102.604 47.2626 104.415 49.5749 104.415C51.8872 104.415 53.0716 102.604 53.0716 101.019Z" fill="#251F31"/>
<path d="M72.188 108.943C71.1165 110.584 69.1425 111.603 66.943 111.603C63.1644 111.603 60.5137 108.943 60.5137 105.037V96.1503H63.1644V104.811C63.1644 107.924 65.3639 109.396 67.5634 109.396C69.4245 109.396 72.1316 107.924 72.1316 104.811V96.0938H74.7259V111.094H73.2032L72.188 108.943Z" fill="#251F31"/>
<path d="M81.2134 111.094H78.6191V84.7731L80.9878 84.3203H81.2698V111.094H81.2134Z" fill="#251F31"/>
<path d="M97.9627 111.094H96.4964L95.594 108.943C94.8609 110.018 93.3381 111.547 90.0106 111.547C86.232 111.547 83.8633 109.283 83.8633 106.509C83.8633 103.679 86.232 101.358 90.0106 101.358C92.2666 101.358 94.6353 102.547 95.4248 103.509V102.433C95.3684 100.226 94.1841 97.792 90.9694 97.792C89.0519 97.792 87.7547 98.5278 86.796 99.0939L85.7808 97.2259C86.7396 96.4901 88.9391 95.5278 91.2514 95.5844C94.7481 95.641 97.7935 97.7354 97.9627 102.547V111.094ZM95.4248 105.433C94.4661 104.358 92.6049 103.283 90.4054 103.339C87.9239 103.339 86.514 104.811 86.514 106.509C86.514 108.264 88.0367 109.679 90.4054 109.679C93.1125 109.679 95.1428 107.471 95.4248 105.66V105.433Z" fill="#251F31"/>
<path d="M101.404 96.0944H102.814L103.886 97.7925C104.393 96.6039 105.803 95.6416 107.495 95.6416C108.228 95.6416 108.736 95.8114 109.525 96.151L109.018 98.4718L108.792 98.5284C108.285 98.2454 107.664 98.0756 107.1 98.0756C105.69 98.0756 104.619 98.8114 103.942 100.283V111.094H101.348V96.0944H101.404Z" fill="#251F31"/>
<path d="M112.908 84.8294C129.884 82.3388 133.663 92.1879 133.663 98.0181C133.663 103.565 129.546 113.471 112.908 111.094V84.8294ZM115.784 108.773C123.793 109.735 130.674 105.66 130.674 98.0747C130.674 91.6218 125.823 85.9615 115.784 87.2633V108.773Z" fill="#251F31"/>
<path d="M151.315 87.2074H144.435V111.151H141.615V87.2074H134.734V84.8301H151.315V87.2074Z" fill="#251F31"/>
<path d="M175.398 84.8301L164.4 111.434H163.893L153.008 84.8301H156.166L164.231 105.264L172.465 84.8301H175.398Z" fill="#251F31"/>
</svg>

<?xml version="1.0" encoding="utf-8"?>
<!-- Generator: Adobe Illustrator 23.0.0, SVG Export Plug-In . SVG Version: 6.00 Build 0)  -->
<svg version="1.1" id="Layer_1" xmlns="http://www.w3.org/2000/svg" xmlns:xlink="http://www.w3.org/1999/xlink" x="0px" y="0px"
	 viewBox="0 0 176 121" style="enable-background:new 0 0 176 121;" xml:space="preserve">
<style type="text/css">
	.st0{fill:#D40D26;}
	.st1{fill:#251F31;}
</style>
<path class="st0" d="M94.2,11.3L87.5,0l-6.7,11.3C49,14.2,24,37.2,24,37.2S49.8,61,82.4,63.3l5.1,9.4l5.1-9.4
	C125.1,61,151,37.2,151,37.2S126,14.3,94.2,11.3z M105.2,29.3L89.9,57.7c-0.8,0.1-1.6,0.1-2.4,0.1c-0.8,0-1.6,0-2.4-0.1L69.9,29.3
	l-3.2,5.4l12.3,22.4c-25.3-3.3-49-19.9-49-19.9s22.5-15.8,47.1-19.7l-3.9,6.5l3.2,5.6l8-12.9c1.1-0.1,2.1-0.1,3.2-0.1
	c1.1,0,2.1,0.1,3.2,0.1l8,12.9l3.2-5.6l-3.9-6.5c24.6,3.9,47.4,19.7,47.4,19.7s-24,16.6-49.3,19.9l12.3-22.4L105.2,29.3z"/>
<path class="st1" d="M13.3,88.2c-1.6-0.8-3.2-1.4-5.2-1.4c-2.9,0-4.6,1.8-4.6,3.9c0,2.5,2.6,4.2,5.1,5.6c4.7,2.5,6.8,5.3,6.7,8.7
	c-0.1,4.5-3.5,6.7-7.8,6.6c-3.8-0.1-6-1.2-7.4-2.4l1.1-2.3c1.5,1,3.5,2.2,6.1,2.2c3.3,0,5.1-2.2,5.1-4c0-2.9-2.1-4.4-5.5-6.5
	c-3.8-2.3-6.3-4.2-6.3-7.9c0-2.9,2.3-6.5,7.3-6.5c2.5,0,5,0.8,6.3,1.7L13.3,88.2z"/>
<path class="st1" d="M20.5,87.8c1.2,0,2.1,1,2.1,2.2c0,1.2-1,2.1-2.1,2.1c-1.1,0-2.1-0.9-2.1-2.1C18.4,88.8,19.3,87.8,20.5,87.8z
	 M19.2,96.1h2.6v15h-2.6V96.1z"/>
<path class="st1" d="M28.6,98.2c1.1-1.5,3-2.7,5.2-2.7c3.8,0,6.4,2.7,6.4,6.6v8.9h-2.7v-8.7c0-3.1-2.3-4.6-4.4-4.6
	c-1.9,0-4.6,1.4-4.6,4.6v8.7h-2.6V96h1.5L28.6,98.2z"/>
<path class="st1" d="M41.6,115.6c0-2.8,2-4.2,4.2-4.7c-1-0.2-1.9-1.3-1.9-2.6c0-1.3,1.1-2.6,2.5-2.6c-1.9-1.1-2.8-2.9-2.8-4.6
	c0-2.5,1.9-5.4,6-5.4c1.6,0,3.4,0.6,4.3,1.5l3.4-1h0.5v2.5h-2.9c0.5,0.6,0.7,1.6,0.7,2.3c0,2.9-2.1,5.4-6,5.4
	c-2.1,0-2.9,0.7-2.9,1.8c0,1.4,1.2,1.8,3.3,1.8c5.1,0.2,8.5,1.8,8.5,5.6c0,3.8-4.2,5.4-8.5,5.4C45.6,121,41.6,119.4,41.6,115.6z
	 M55.7,115.6c0-2.3-3-3.5-6.1-3.5c-3,0-5.4,1.1-5.4,3.5c0,2.4,3,3.3,5.7,3.3C52.7,118.9,55.7,118,55.7,115.6z M53.1,101
	c0-1.6-1.2-3.4-3.5-3.4c-2.4,0-3.5,1.8-3.5,3.4c0,1.6,1.2,3.4,3.5,3.4C51.9,104.4,53.1,102.6,53.1,101z"/>
<path class="st1" d="M72.2,108.9c-1.1,1.6-3,2.7-5.2,2.7c-3.8,0-6.4-2.7-6.4-6.6v-8.9h2.7v8.7c0,3.1,2.2,4.6,4.4,4.6
	c1.9,0,4.6-1.5,4.6-4.6v-8.7h2.6v15h-1.5L72.2,108.9z"/>
<path class="st1" d="M81.2,111.1h-2.6V84.8l2.4-0.5h0.3L81.2,111.1L81.2,111.1z"/>
<path class="st1" d="M98,111.1h-1.5l-0.9-2.2c-0.7,1.1-2.3,2.6-5.6,2.6c-3.8,0-6.1-2.3-6.1-5c0-2.8,2.4-5.2,6.1-5.2
	c2.3,0,4.6,1.2,5.4,2.2v-1.1c-0.1-2.2-1.2-4.6-4.5-4.6c-1.9,0-3.2,0.7-4.2,1.3l-1-1.9c1-0.7,3.2-1.7,5.5-1.6c3.5,0.1,6.5,2.2,6.7,7
	V111.1z M95.4,105.4c-1-1.1-2.8-2.2-5-2.1c-2.5,0-3.9,1.5-3.9,3.2c0,1.8,1.5,3.2,3.9,3.2c2.7,0,4.7-2.2,5-4V105.4z"/>
<path class="st1" d="M101.4,96.1h1.4l1.1,1.7c0.5-1.2,1.9-2.2,3.6-2.2c0.7,0,1.2,0.2,2,0.5l-0.5,2.3l-0.2,0.1
	c-0.5-0.3-1.1-0.5-1.7-0.5c-1.4,0-2.5,0.7-3.2,2.2v10.8h-2.6L101.4,96.1L101.4,96.1z"/>
<path class="st1" d="M112.9,84.8c17-2.5,20.8,7.4,20.8,13.2c0,5.5-4.1,15.5-20.8,13.1V84.8z M115.8,108.8c8,1,14.9-3.1,14.9-10.7
	c0-6.5-4.9-12.1-14.9-10.8V108.8z"/>
<path class="st1" d="M151.3,87.2h-6.9v23.9h-2.8V87.2h-6.9v-2.4h16.6V87.2z"/>
<path class="st1" d="M175.4,84.8l-11,26.6h-0.5L153,84.8h3.2l8.1,20.4l8.2-20.4H175.4z"/>
</svg>
